la/credit-card-solid.svg

<svg xmlns="http://www.w3.org/2000/svg" viewBox="0 0 32 32" height="1em" width="1em">
  <path d="M 5 6 C 3.355469 6 2 7.355469 2 9 L 2 23 C 2 24.644531 3.355469 26 5 26 L 27 26 C 28.644531 26 30 24.644531 30 23 L 30 9 C 30 7.355469 28.644531 6 27 6 Z M 5 8 L 27 8 C 27.566406 8 28 8.433594 28 9 L 28 11 L 5 11 L 5 13 L 28 13 L 28 23 C 28 23.566406 27.566406 24 27 24 L 5 24 C 4.433594 24 4 23.566406 4 23 L 4 9 C 4 8.433594 4.433594 8 5 8 Z"/>
</svg>

<svg xmlns="http://www.w3.org/2000/svg" viewBox="0 0 32 32" height="1em" width="1em">
  <path d="M5 6C3.355 6 2 7.355 2 9v14c0 1.645 1.355 3 3 3h22c1.645 0 3-1.355 3-3V9c0-1.645-1.355-3-3-3Zm0 2h22c.566 0 1 .434 1 1v2H5v2h23v10c0 .566-.434 1-1 1H5c-.566 0-1-.434-1-1V9c0-.566.434-1 1-1Z"/>
</svg>
